wp-content/themes/cls/dist/assets/images/get-help-graphic01.svg

<?xml version="1.0" encoding="UTF-8"?>
<svg width="146px" height="128px" viewBox="0 0 146 128" version="1.1" xmlns="http://www.w3.org/2000/svg" xmlns:xlink="http://www.w3.org/1999/xlink">
    <!-- Generator: Sketch 56.2 (81672) - https://sketch.com -->
    <title>get-help-graphic01</title>
    <desc>Created with Sketch.</desc>
    <g id="Design" stroke="none" stroke-width="1" fill="none" fill-rule="evenodd">
        <g id="Template-#4A---Get-Help" transform="translate(-21.000000, -1825.000000)">
            <g id="get-help-graphic01" transform="translate(21.000000, 1825.000000)">
                <g id="Group-28">
                    <path d="M53.70795,8.52651283e-14 L84.28095,30.5721 L56.02545,58.8285 C47.84715,67.0059 48.04515,80.4627 56.46735,88.8849 C64.89045,97.3071 78.34725,97.5051 86.52465,89.3277 L114.78015,61.0722 L145.27035,91.5624 L143.94285,1.4094 L53.70795,8.52651283e-14 Z" id="Fill-57" fill="#FFB19E"></path>
                    <path d="M52.65855,44.31924 L52.65855,66.89844 L39.27015,66.89844 C33.23025,66.89844 28.33425,71.94024 28.33425,78.16104 C28.33425,84.38094 33.23025,89.42364 39.27015,89.42364 L52.65855,89.42364 L52.65855,111.94254 L85.45905,78.16104 L52.65855,44.31924 Z" id="Fill-59" fill="#FFFFFF"></path>
                    <path d="M85.5999,83.24739 L85.5999,93.45429 C86.7069,92.64699 88.4097,92.24559 89.6004,92.11149 L89.6004,83.24739 L89.6004,73.58769 L89.6004,40.83579 L54.0198,40.83579 L47.1888,40.83579 L37.5804,40.83579 C16.8579,40.83579 -1.98951966e-13,57.69459 -1.98951966e-13,78.41709 C-1.98951966e-13,99.13959 16.8579,115.99929 37.5804,115.99929 L47.1888,115.99929 L54.0198,115.99929 L80.9856,115.99929 C81.0099,115.89129 79.0425,113.08599 79.731,111.99699 L56.8503,111.99699 L85.5999,83.24739 Z" id="Fill-61" fill="#002161"></path>
                    <polygon id="Fill-63" fill="#FFFFFF" points="85.5999 44.83737 85.5999 73.58697 56.8503 44.83737"></polygon>
                    <path d="M50.01912,111.99726 L37.58022,111.99726 C19.06362,111.99726 4.00032,96.93306 4.00032,78.41736 C4.00032,59.90166 19.06362,44.83746 37.58022,44.83746 L50.01912,44.83746 L50.01912,64.55376 L37.58022,64.55376 C29.93652,64.55376 23.71662,70.77276 23.71662,78.41736 C23.71662,86.06196 29.93652,92.28096 37.58022,92.28096 L50.01912,92.28096 L50.01912,111.99726 Z" id="Fill-65" fill="#FFFFFF"></path>
                    <path d="M37.58004,88.27911 C32.14224,88.27911 27.71784,83.85471 27.71784,78.41691 C27.71784,72.97911 32.14224,68.55561 37.58004,68.55561 L54.02034,68.55561 L54.02034,47.66661 L84.77154,78.41691 L54.02034,109.16811 L54.02034,88.27911 L37.58004,88.27911 Z" id="Fill-67" fill="#FFFFFF"></path>
                    <polygon id="Fill-69" fill="#FFFFFF" points="85.5999 83.24739 56.8503 111.99699 92.0907 111.99699 94.3227 98.11179 89.622 98.19099"></polygon>
                    <polygon id="Fill-71" fill="#002161" points="85.54959 96.97923 89.60049 96.97923 89.60049 82.55763 85.54959 82.55763"></polygon>
                    <path d="M95.65551,94.62879 C91.79181,93.46509 87.74271,93.91779 84.25701,95.90589 C80.76321,97.89759 78.30981,101.14479 77.34951,105.04809 C76.42611,108.80289 77.05431,112.80339 79.07031,116.09559 L76.86441,121.08249 L76.81851,121.21569 C76.56741,122.23179 76.96071,123.27759 77.81841,123.88149 C78.07851,124.06329 78.36471,124.19379 78.66801,124.26759 C78.86511,124.31619 79.06491,124.33959 79.26471,124.33959 C79.65981,124.33959 80.05131,124.24599 80.41041,124.06239 L85.85811,121.90239 C86.55471,122.19489 87.26481,122.43159 87.97401,122.60619 C91.87731,123.56649 95.89311,122.89959 99.27801,120.72879 C102.66111,118.55709 104.94171,115.18029 105.69861,111.21939 C107.07201,104.03379 102.66021,96.74649 95.65551,94.62879" id="Fill-73" fill="#002161"></path>
                    <path d="M84.91437,118.68048 L80.74917,120.33198 L82.84977,115.62948 L82.42857,115.05618 C80.45037,112.35798 79.77267,108.95058 80.57097,105.70878 C81.31527,102.68118 83.21787,100.16298 85.92867,98.61768 C88.63677,97.07418 91.77417,96.72228 94.77477,97.62858 C100.20447,99.26928 103.62357,104.91948 102.55887,110.49228 C101.97207,113.56668 100.20357,116.18658 97.57917,117.87048 C94.95387,119.55528 91.83897,120.07278 88.81047,119.32848 C88.00857,119.13048 87.20127,118.82808 86.41287,118.42938 L86.09607,118.26918 L84.91437,118.68048 Z" id="Fill-74" fill="#FFFFFF"></path>
                    <path d="M123.38847,127.36233 C122.79177,127.36233 122.20947,127.14273 121.75317,126.72963 L114.46587,121.54113 C113.29767,121.75443 112.13577,121.86153 110.99817,121.86153 C105.55317,121.86153 100.48977,119.68533 96.74037,115.73433 C92.99367,111.78513 91.08747,106.60653 91.37457,101.15163 C91.89387,91.25883 100.05057,83.10303 109.94427,82.58553 C115.40097,82.30563 120.57687,84.20553 124.52427,87.95223 C128.47347,91.70163 130.64967,96.76503 130.64967,102.20913 C130.64967,107.69283 128.37627,112.87863 124.37937,116.59473 L125.85177,124.90353 C125.85177,125.92413 125.23707,126.82323 124.28487,127.19313 C123.99237,127.30653 123.68817,127.36233 123.38847,127.36233" id="Fill-75" fill="#002161"></path>
                    <path d="M116.60337,118.60002 L121.83687,122.32692 L120.52377,115.05942 L121.30677,114.40422 C124.98507,111.32532 127.09557,106.81272 127.09557,102.02652 C127.09557,97.55532 125.30907,93.39642 122.06367,90.31662 C118.82187,87.23952 114.57387,85.67532 110.08557,85.90932 C101.96217,86.33412 95.26617,93.03012 94.83867,101.15352 C94.60377,105.63642 96.16887,109.89072 99.24597,113.13432 C102.32487,116.37972 106.48377,118.16712 110.95677,118.16712 C112.14207,118.16712 113.36877,118.02222 114.60267,117.73692 L115.09767,117.62172 L116.60337,118.60002 Z" id="Fill-76" fill="#FFFFFF"></path>
                </g>
            </g>
        </g>
    </g>
</svg>

<svg xmlns="http://www.w3.org/2000/svg" viewBox="0 0 146 128">
  <g fill="none" fill-rule="evenodd">
    <path d="M53.708 0L84.28 30.572 56.025 58.828c-8.178 8.178-7.98 21.635.442 30.057 8.423 8.422 21.88 8.62 30.058.443l28.255-28.256 30.49 30.49-1.327-90.153L53.708 0z" fill="#FFB19E"/>
    <path d="M52.659 44.32v22.578H39.27c-6.04 0-10.936 5.042-10.936 11.263 0 6.22 4.896 11.263 10.936 11.263H52.66v22.519l32.8-33.782-32.8-33.842z" fill="#FFF"/>
    <path d="M85.6 83.247v10.207c1.107-.807 2.81-1.208 4-1.343V40.836H37.58C16.858 40.836 0 57.695 0 78.417 0 99.14 16.858 116 37.58 116h43.406c.024-.108-1.944-2.913-1.255-4.002h-22.88L85.6 83.247z" fill="#002161"/>
    <path fill="#FFF" d="M85.6 44.837v28.75l-28.75-28.75zM50.02 111.997H37.58C19.064 111.997 4 96.933 4 78.417c0-18.515 15.064-33.58 33.58-33.58h12.44v19.717H37.58c-7.643 0-13.863 6.219-13.863 13.863 0 7.645 6.22 13.864 13.863 13.864h12.44v19.716z"/>
    <path d="M37.58 88.28c-5.438 0-9.862-4.425-9.862-9.863s4.424-9.861 9.862-9.861h16.44v-20.89l30.752 30.75-30.752 30.752V88.28H37.58zM85.6 83.247l-28.75 28.75h35.24l2.233-13.885-4.701.079z" fill="#FFF"/>
    <path fill="#002161" d="M85.55 96.98h4.05V82.557h-4.05z"/>
    <path d="M95.656 94.629c-3.864-1.164-7.913-.711-11.399 1.277a14.384 14.384 0 00-6.907 9.142 14.562 14.562 0 001.72 11.048l-2.206 4.986-.045.134a2.506 2.506 0 001 2.665 2.52 2.52 0 001.446.459c.395 0 .786-.094 1.145-.278l5.448-2.16c.697.293 1.407.53 2.116.704 3.903.96 7.92.294 11.304-1.877 3.383-2.172 5.664-5.549 6.42-9.51 1.374-7.185-3.038-14.473-10.042-16.59" fill="#002161"/>
    <path d="M84.914 118.68l-4.165 1.652 2.1-4.703-.42-.573a11.231 11.231 0 01-1.858-9.347 11.154 11.154 0 015.358-7.091c2.708-1.544 5.845-1.896 8.846-.99 5.43 1.641 8.849 7.291 7.784 12.864a11.17 11.17 0 01-4.98 7.378 11.158 11.158 0 01-8.769 1.458c-.801-.198-1.609-.5-2.397-.899l-.317-.16-1.182.411z" fill="#FFF"/>
    <path d="M123.388 127.362c-.596 0-1.179-.22-1.635-.632l-7.287-5.189c-1.168.213-2.33.32-3.468.32-5.445 0-10.508-2.176-14.258-6.127-3.746-3.949-5.653-9.127-5.365-14.582.519-9.893 8.676-18.049 18.57-18.566 5.456-.28 10.632 1.62 14.58 5.366 3.948 3.75 6.125 8.813 6.125 14.257 0 5.484-2.274 10.67-6.27 14.386l1.472 8.309c0 1.02-.615 1.92-1.567 2.29a2.48 2.48 0 01-.897.168" fill="#002161"/>
    <path d="M116.603 118.6l5.234 3.727-1.313-7.268.783-.655a16.108 16.108 0 005.789-12.377c0-4.472-1.787-8.63-5.032-11.71-3.242-3.077-7.49-4.642-11.978-4.408-8.124.425-14.82 7.121-15.247 15.245-.235 4.482 1.33 8.737 4.407 11.98a15.995 15.995 0 0011.71 5.033c1.186 0 2.413-.145 3.647-.43l.495-.115 1.505.978z" fill="#FFF"/>
  </g>
</svg>
